X:536
T:Flett From Flotta #2
C:Joe Buchanan's Scottish Tome - Page 064.1
I:064 1
C:P.M. Donald MacLeod
R:Reel
Z:Carl Allison
L:1/8
M:4/4
K:Amaj
(f>e) |  {d}c>e cB {d}c2 (Ac) |  e>f ec {f}e2 (ce) |  {fa}f>e fa {fa}f2 (ec) |  {fa}f>e cA  {c}B2(f>e) |
{d}c>e cB {d}c2 (Ac) |  e>f ec {g}a2 (AB) |  {d}c2 {g}a2 e<c  B>c |  A4 {AB}A2 (A>B) |]
{f}e2 (Ac) {g}a2 (Ac) |  e>f ec {f}e2 (Ac) |  {g}a2 (Ac) {f}e2 (ce) |  {fa}f>e  cA  {c}B2 (f>e) |
{d}c>e cB {d}c2 (Ac) |  e>f ec {g}a2 (A>B) |  {d}c2 {g}a2 e<c  B>c |  A4 {AB}A2 |]
